Newaita-dark/apps/24/kblackbox.svg

<?xml version="1.0" encoding="UTF-8"?>
<svg xmlns="http://www.w3.org/2000/svg" xmlns:xlink="http://www.w3.org/1999/xlink" width="24pt" height="24pt" viewBox="0 0 24 24" version="1.1">
<defs>
<radialGradient id="radial0" gradientUnits="userSpaceOnUse" cx="450.908936" cy="189.579361" fx="450.908936" fy="189.579361" r="21.166656" gradientTransform="matrix(0.000000130628,-0.0585994,-0.105479,-0.0000000761539,31.655869,48.688783)">
<stop offset="0" style="stop-color:rgb(0%,0%,0%);stop-opacity:0.313725;"/>
<stop offset="0.222222" style="stop-color:rgb(0%,0%,0%);stop-opacity:0.27451;"/>
<stop offset="1" style="stop-color:rgb(0%,0%,0%);stop-opacity:0;"/>
</radialGradient>
<radialGradient id="radial1" gradientUnits="userSpaceOnUse" cx="450.908936" cy="189.579361" fx="450.908936" fy="189.579361" r="21.166656" gradientTransform="matrix(-0.000000130628,0.0585994,0.105479,0.0000000761539,-7.841093,-4.653326)">
<stop offset="0" style="stop-color:rgb(0%,0%,0%);stop-opacity:0.313725;"/>
<stop offset="0.222222" style="stop-color:rgb(0%,0%,0%);stop-opacity:0.27451;"/>
<stop offset="1" style="stop-color:rgb(0%,0%,0%);stop-opacity:0;"/>
</radialGradient>
<radialGradient id="radial2" gradientUnits="userSpaceOnUse" cx="450.908936" cy="189.579361" fx="450.908936" fy="189.579361" r="21.166656" gradientTransform="matrix(-0.000000130628,-0.0585994,0.105479,-0.0000000761539,-7.841093,48.688783)">
<stop offset="0" style="stop-color:rgb(0%,0%,0%);stop-opacity:0.313725;"/>
<stop offset="0.222222" style="stop-color:rgb(0%,0%,0%);stop-opacity:0.27451;"/>
<stop offset="1" style="stop-color:rgb(0%,0%,0%);stop-opacity:0;"/>
</radialGradient>
<radialGradient id="radial3" gradientUnits="userSpaceOnUse" cx="450.908936" cy="189.579361" fx="450.908936" fy="189.579361" r="21.166656" gradientTransform="matrix(0.000000130628,0.0585994,-0.105479,0.0000000761539,31.655867,-4.653326)">
<stop offset="0" style="stop-color:rgb(0%,0%,0%);stop-opacity:0.313725;"/>
<stop offset="0.222222" style="stop-color:rgb(0%,0%,0%);stop-opacity:0.27451;"/>
<stop offset="1" style="stop-color:rgb(0%,0%,0%);stop-opacity:0;"/>
</radialGradient>
<linearGradient id="linear0" gradientUnits="userSpaceOnUse" x1="232.833328" y1="254.666672" x2="232.833328" y2="21.833334" gradientTransform="matrix(0.0468795,0,0,0.0468795,0,10.079087)">
<stop offset="0" style="stop-color:rgb(25.882353%,25.882353%,25.882353%);stop-opacity:1;"/>
<stop offset="1" style="stop-color:rgb(38.039216%,38.039216%,38.039216%);stop-opacity:1;"/>
</linearGradient>
<linearGradient id="linear1" gradientUnits="userSpaceOnUse" x1="254" y1="43" x2="254" y2="-168.666672" gradientTransform="matrix(0.0468795,0,0,0.0468795,0,10.079087)">
<stop offset="0" style="stop-color:rgb(38.039216%,38.039216%,38.039216%);stop-opacity:1;"/>
<stop offset="1" style="stop-color:rgb(45.882353%,45.882353%,45.882353%);stop-opacity:1;"/>
</linearGradient>
</defs>
<g id="surface1">
<path style=" stroke:none;fill-rule:nonzero;fill:url(#radial0);" d="M 11.90625 22.019531 L 13.890625 22.019531 L 13.890625 21.027344 L 11.90625 21.027344 Z M 11.90625 22.019531 "/>
<path style=" stroke:none;fill-rule:nonzero;fill:url(#radial1);" d="M 11.90625 22.019531 L 9.921875 22.019531 L 9.921875 23.011719 L 11.90625 23.011719 Z M 11.90625 22.019531 "/>
<path style=" stroke:none;fill-rule:nonzero;fill:url(#radial2);" d="M 11.90625 22.019531 L 9.921875 22.019531 L 9.921875 21.027344 L 11.90625 21.027344 Z M 11.90625 22.019531 "/>
<path style=" stroke:none;fill-rule:nonzero;fill:url(#radial3);" d="M 11.90625 22.019531 L 13.890625 22.019531 L 13.890625 23.011719 L 11.90625 23.011719 Z M 11.90625 22.019531 "/>
<path style=" stroke:none;fill-rule:nonzero;fill:url(#linear0);" d="M 2.980469 6.140625 C 2.707031 6.140625 2.480469 6.363281 2.480469 6.636719 L 2.480469 16.558594 C 2.480469 16.738281 2.578125 16.90625 2.738281 16.992188 L 11.667969 21.953125 C 11.671875 21.957031 11.671875 21.957031 11.675781 21.960938 C 11.679688 21.960938 11.683594 21.964844 11.691406 21.964844 C 11.695312 21.96875 11.703125 21.972656 11.707031 21.972656 C 11.710938 21.976562 11.714844 21.976562 11.71875 21.976562 C 11.722656 21.980469 11.730469 21.984375 11.738281 21.988281 C 11.742188 21.988281 11.742188 21.988281 11.746094 21.988281 C 11.753906 21.992188 11.761719 21.996094 11.769531 21.996094 C 11.78125 22 11.789062 22.003906 11.800781 22.003906 C 11.8125 22.007812 11.820312 22.007812 11.832031 22.011719 C 11.839844 22.011719 11.851562 22.015625 11.863281 22.015625 C 11.871094 22.015625 11.882812 22.015625 11.890625 22.015625 C 11.898438 22.015625 11.902344 22.015625 11.90625 22.015625 C 11.914062 22.015625 11.917969 22.015625 11.921875 22.015625 C 11.933594 22.015625 11.941406 22.015625 11.953125 22.015625 C 11.964844 22.015625 11.972656 22.011719 11.984375 22.011719 C 11.992188 22.007812 12.003906 22.007812 12.015625 22.003906 C 12.023438 22.003906 12.035156 22 12.042969 21.996094 C 12.042969 21.996094 12.042969 21.996094 12.046875 21.996094 C 12.054688 21.996094 12.0625 21.992188 12.070312 21.988281 C 12.070312 21.988281 12.074219 21.988281 12.078125 21.988281 C 12.082031 21.984375 12.089844 21.980469 12.097656 21.976562 C 12.101562 21.976562 12.105469 21.976562 12.109375 21.972656 C 12.113281 21.972656 12.121094 21.96875 12.125 21.964844 C 12.128906 21.964844 12.132812 21.960938 12.136719 21.960938 C 12.140625 21.957031 12.144531 21.957031 12.148438 21.953125 L 21.078125 16.992188 C 21.234375 16.90625 21.332031 16.738281 21.332031 16.558594 L 21.332031 6.636719 C 21.332031 6.359375 21.101562 6.132812 20.824219 6.144531 C 20.746094 6.144531 20.667969 6.167969 20.597656 6.203125 L 11.90625 11.03125 L 3.21875 6.203125 C 3.144531 6.164062 3.0625 6.144531 2.980469 6.140625 Z M 2.980469 6.140625 "/>
<path style=" stroke:none;fill-rule:nonzero;fill:url(#linear1);" d="M 11.917969 2.171875 C 11.84375 2.171875 11.773438 2.1875 11.707031 2.214844 L 2.777344 6.183594 C 2.402344 6.351562 2.378906 6.871094 2.738281 7.070312 L 11.667969 12.03125 C 11.816406 12.113281 12 12.113281 12.148438 12.03125 L 21.078125 7.070312 C 21.433594 6.871094 21.410156 6.351562 21.039062 6.183594 L 12.109375 2.214844 C 12.046875 2.1875 11.984375 2.175781 11.917969 2.171875 Z M 11.917969 2.171875 "/>
<path style=" stroke:none;fill-rule:nonzero;fill:rgb(100%,100%,100%);fill-opacity:0.392157;" d="M 11.917969 2.171875 C 11.84375 2.171875 11.773438 2.1875 11.707031 2.214844 L 2.777344 6.183594 C 2.773438 6.1875 2.773438 6.1875 2.769531 6.1875 C 2.765625 6.1875 2.765625 6.191406 2.761719 6.191406 C 2.613281 6.261719 2.523438 6.390625 2.496094 6.527344 C 2.492188 6.535156 2.492188 6.539062 2.492188 6.542969 C 2.488281 6.546875 2.488281 6.550781 2.488281 6.554688 C 2.488281 6.5625 2.488281 6.570312 2.484375 6.578125 C 2.484375 6.578125 2.484375 6.582031 2.484375 6.585938 C 2.484375 6.59375 2.484375 6.605469 2.484375 6.613281 C 2.484375 6.617188 2.484375 6.617188 2.484375 6.621094 C 2.480469 6.625 2.480469 6.632812 2.480469 6.636719 L 2.480469 6.882812 C 2.480469 6.878906 2.480469 6.871094 2.484375 6.867188 C 2.484375 6.863281 2.484375 6.863281 2.484375 6.859375 C 2.484375 6.851562 2.484375 6.839844 2.484375 6.832031 C 2.484375 6.828125 2.484375 6.828125 2.484375 6.824219 C 2.488281 6.816406 2.488281 6.808594 2.488281 6.800781 C 2.488281 6.796875 2.488281 6.792969 2.492188 6.789062 C 2.492188 6.785156 2.492188 6.78125 2.496094 6.773438 C 2.523438 6.636719 2.613281 6.507812 2.761719 6.4375 C 2.765625 6.4375 2.765625 6.4375 2.769531 6.433594 C 2.773438 6.433594 2.773438 6.433594 2.777344 6.433594 L 11.707031 2.460938 C 11.773438 2.433594 11.84375 2.417969 11.917969 2.421875 C 11.984375 2.421875 12.046875 2.4375 12.109375 2.460938 L 21.039062 6.433594 C 21.042969 6.433594 21.046875 6.433594 21.050781 6.4375 C 21.054688 6.4375 21.058594 6.441406 21.0625 6.441406 C 21.0625 6.445312 21.066406 6.445312 21.066406 6.445312 C 21.199219 6.515625 21.28125 6.628906 21.316406 6.757812 C 21.316406 6.765625 21.320312 6.769531 21.320312 6.773438 C 21.320312 6.78125 21.324219 6.785156 21.324219 6.789062 C 21.324219 6.792969 21.324219 6.796875 21.324219 6.800781 C 21.328125 6.808594 21.328125 6.816406 21.328125 6.824219 C 21.328125 6.828125 21.328125 6.828125 21.328125 6.832031 C 21.332031 6.839844 21.332031 6.851562 21.332031 6.859375 C 21.332031 6.863281 21.332031 6.863281 21.332031 6.867188 C 21.332031 6.871094 21.332031 6.878906 21.332031 6.882812 L 21.332031 6.636719 C 21.332031 6.632812 21.332031 6.625 21.332031 6.621094 C 21.332031 6.617188 21.332031 6.617188 21.332031 6.613281 C 21.332031 6.605469 21.332031 6.59375 21.328125 6.582031 C 21.328125 6.582031 21.328125 6.578125 21.328125 6.578125 C 21.328125 6.570312 21.328125 6.5625 21.324219 6.554688 C 21.324219 6.550781 21.324219 6.546875 21.324219 6.542969 C 21.324219 6.539062 21.320312 6.53125 21.320312 6.527344 C 21.320312 6.523438 21.316406 6.515625 21.316406 6.511719 C 21.28125 6.382812 21.199219 6.265625 21.066406 6.199219 C 21.066406 6.199219 21.0625 6.195312 21.0625 6.195312 C 21.058594 6.195312 21.054688 6.191406 21.050781 6.191406 C 21.046875 6.1875 21.042969 6.1875 21.039062 6.183594 L 12.109375 2.214844 C 12.046875 2.1875 11.984375 2.175781 11.917969 2.171875 Z M 11.917969 2.171875 "/>
<path style=" stroke:none;fill-rule:nonzero;fill:rgb(0%,0%,0%);fill-opacity:0.235294;" d="M 2.480469 16.316406 L 2.480469 16.558594 C 2.480469 16.738281 2.578125 16.90625 2.738281 16.992188 L 11.667969 21.953125 C 11.671875 21.957031 11.671875 21.957031 11.675781 21.960938 C 11.679688 21.960938 11.683594 21.964844 11.691406 21.964844 C 11.695312 21.96875 11.703125 21.972656 11.707031 21.972656 C 11.710938 21.976562 11.714844 21.976562 11.71875 21.976562 C 11.722656 21.980469 11.730469 21.984375 11.738281 21.988281 C 11.742188 21.988281 11.742188 21.988281 11.746094 21.988281 C 11.753906 21.992188 11.761719 21.996094 11.769531 21.996094 C 11.78125 22 11.789062 22.003906 11.800781 22.003906 C 11.8125 22.007812 11.820312 22.007812 11.832031 22.011719 C 11.839844 22.011719 11.851562 22.015625 11.863281 22.015625 C 11.871094 22.015625 11.882812 22.015625 11.890625 22.015625 C 11.898438 22.015625 11.902344 22.015625 11.90625 22.015625 C 11.914062 22.015625 11.917969 22.015625 11.921875 22.015625 C 11.933594 22.015625 11.941406 22.015625 11.953125 22.015625 C 11.964844 22.015625 11.972656 22.011719 11.984375 22.011719 C 11.992188 22.007812 12.003906 22.007812 12.015625 22.003906 C 12.023438 22.003906 12.035156 22 12.042969 21.996094 C 12.042969 21.996094 12.042969 21.996094 12.046875 21.996094 C 12.054688 21.996094 12.0625 21.992188 12.070312 21.988281 C 12.070312 21.988281 12.074219 21.988281 12.078125 21.988281 C 12.082031 21.984375 12.089844 21.980469 12.097656 21.976562 C 12.101562 21.976562 12.105469 21.976562 12.109375 21.972656 C 12.113281 21.972656 12.121094 21.96875 12.125 21.964844 C 12.128906 21.964844 12.132812 21.960938 12.136719 21.960938 C 12.140625 21.957031 12.144531 21.957031 12.148438 21.953125 L 21.078125 16.992188 C 21.234375 16.90625 21.332031 16.738281 21.332031 16.558594 L 21.332031 16.316406 C 21.332031 16.496094 21.234375 16.664062 21.078125 16.75 L 12.148438 21.710938 C 12.144531 21.710938 12.140625 21.714844 12.136719 21.714844 C 12.132812 21.71875 12.128906 21.71875 12.125 21.722656 C 12.121094 21.726562 12.113281 21.726562 12.109375 21.730469 C 12.105469 21.730469 12.101562 21.734375 12.097656 21.734375 C 12.089844 21.738281 12.082031 21.742188 12.078125 21.742188 C 12.074219 21.742188 12.074219 21.746094 12.070312 21.746094 C 12.0625 21.75 12.054688 21.75 12.046875 21.753906 C 12.042969 21.753906 12.042969 21.753906 12.042969 21.753906 C 12.035156 21.757812 12.023438 21.757812 12.015625 21.761719 C 12.003906 21.765625 11.992188 21.765625 11.984375 21.769531 C 11.972656 21.769531 11.964844 21.769531 11.953125 21.773438 C 11.941406 21.773438 11.933594 21.773438 11.921875 21.773438 C 11.917969 21.773438 11.914062 21.773438 11.90625 21.773438 C 11.902344 21.773438 11.898438 21.773438 11.890625 21.773438 C 11.882812 21.773438 11.871094 21.773438 11.863281 21.773438 C 11.851562 21.769531 11.839844 21.769531 11.832031 21.769531 C 11.820312 21.765625 11.8125 21.765625 11.800781 21.761719 C 11.789062 21.757812 11.78125 21.757812 11.769531 21.753906 C 11.761719 21.75 11.753906 21.75 11.746094 21.746094 C 11.742188 21.746094 11.742188 21.742188 11.738281 21.742188 C 11.730469 21.742188 11.722656 21.738281 11.71875 21.734375 C 11.714844 21.734375 11.710938 21.730469 11.707031 21.730469 C 11.703125 21.726562 11.695312 21.726562 11.691406 21.722656 C 11.683594 21.71875 11.679688 21.71875 11.675781 21.714844 C 11.671875 21.714844 11.671875 21.710938 11.667969 21.710938 L 2.738281 16.75 C 2.578125 16.664062 2.480469 16.496094 2.480469 16.316406 Z M 2.480469 16.316406 "/>
<path style=" stroke:none;fill-rule:nonzero;fill:rgb(100%,100%,100%);fill-opacity:0.313725;" d="M 2.480469 6.53125 L 2.480469 7.152344 L 11.660156 12.246094 L 11.660156 22.019531 L 12.164062 22.019531 L 12.164062 12.242188 L 21.335938 7.152344 L 21.335938 6.65625 L 21.21875 6.699219 L 11.90625 11.847656 L 2.59375 6.699219 Z M 2.480469 6.53125 "/>
<path style=" stroke:none;fill-rule:nonzero;fill:rgb(12.941177%,12.941177%,12.941177%);fill-opacity:1;" d="M 11.917969 2.101562 C 11.835938 2.101562 11.753906 2.117188 11.679688 2.152344 L 2.746094 6.121094 C 2.515625 6.226562 2.402344 6.453125 2.417969 6.675781 C 2.460938 6.664062 2.503906 6.65625 2.550781 6.648438 C 2.542969 6.488281 2.632812 6.328125 2.804688 6.25 L 11.734375 2.28125 C 11.792969 2.253906 11.851562 2.242188 11.914062 2.242188 C 11.972656 2.246094 12.027344 2.257812 12.078125 2.28125 L 21.011719 6.25 C 21.179688 6.324219 21.265625 6.480469 21.265625 6.636719 L 21.398438 6.636719 C 21.398438 6.425781 21.289062 6.21875 21.066406 6.121094 L 12.136719 2.152344 C 12.066406 2.121094 11.992188 2.105469 11.917969 2.101562 Z M 11.636719 12.09375 C 11.804688 12.1875 12.007812 12.1875 12.179688 12.09375 Z M 11.636719 12.09375 "/>
<path style=" stroke:none;fill-rule:nonzero;fill:rgb(12.941177%,12.941177%,12.941177%);fill-opacity:1;" d="M 2.519531 6.304688 C 2.453125 6.398438 2.410156 6.511719 2.410156 6.636719 L 2.410156 16.558594 C 2.410156 16.765625 2.523438 16.953125 2.703125 17.054688 L 11.632812 22.015625 C 11.640625 22.019531 11.644531 22.019531 11.644531 22.019531 C 11.648438 22.023438 11.652344 22.027344 11.660156 22.027344 C 11.664062 22.03125 11.671875 22.035156 11.679688 22.039062 C 11.683594 22.039062 11.6875 22.042969 11.691406 22.042969 C 11.699219 22.046875 11.707031 22.050781 11.714844 22.054688 C 11.71875 22.054688 11.71875 22.054688 11.722656 22.054688 C 11.730469 22.058594 11.738281 22.0625 11.75 22.066406 C 11.75 22.066406 11.753906 22.066406 11.75 22.066406 C 11.761719 22.066406 11.773438 22.070312 11.785156 22.074219 C 11.796875 22.078125 11.808594 22.078125 11.820312 22.082031 C 11.832031 22.082031 11.84375 22.082031 11.855469 22.085938 C 11.859375 22.085938 11.859375 22.085938 11.855469 22.085938 C 11.867188 22.085938 11.878906 22.085938 11.890625 22.085938 C 11.898438 22.085938 11.902344 22.085938 11.90625 22.085938 C 11.910156 22.085938 11.917969 22.085938 11.925781 22.085938 C 11.9375 22.085938 11.945312 22.085938 11.957031 22.085938 C 11.957031 22.085938 11.957031 22.085938 11.960938 22.085938 C 11.972656 22.082031 11.984375 22.082031 11.996094 22.082031 C 12.007812 22.078125 12.019531 22.078125 12.03125 22.074219 C 12.042969 22.070312 12.050781 22.066406 12.0625 22.066406 C 12.0625 22.066406 12.0625 22.066406 12.066406 22.066406 C 12.074219 22.0625 12.085938 22.058594 12.09375 22.054688 C 12.09375 22.054688 12.097656 22.054688 12.101562 22.054688 C 12.109375 22.050781 12.117188 22.046875 12.125 22.042969 C 12.128906 22.042969 12.132812 22.039062 12.136719 22.039062 C 12.144531 22.035156 12.148438 22.03125 12.15625 22.027344 C 12.160156 22.027344 12.167969 22.023438 12.171875 22.023438 C 12.171875 22.019531 12.175781 22.019531 12.183594 22.015625 L 21.113281 17.054688 C 21.292969 16.953125 21.402344 16.765625 21.402344 16.558594 L 21.402344 6.636719 C 21.402344 6.511719 21.363281 6.398438 21.292969 6.304688 L 21.171875 6.375 C 21.226562 6.445312 21.261719 6.539062 21.261719 6.636719 L 21.261719 16.558594 C 21.261719 16.714844 21.179688 16.855469 21.042969 16.929688 L 12.113281 21.894531 C 12.113281 21.894531 12.109375 21.894531 12.105469 21.898438 C 12.101562 21.898438 12.097656 21.902344 12.09375 21.902344 C 12.089844 21.90625 12.082031 21.90625 12.078125 21.910156 C 12.078125 21.910156 12.074219 21.914062 12.070312 21.914062 C 12.0625 21.917969 12.058594 21.917969 12.050781 21.921875 C 12.050781 21.921875 12.050781 21.921875 12.046875 21.921875 C 12.039062 21.925781 12.03125 21.925781 12.023438 21.929688 C 12.027344 21.929688 12.027344 21.929688 12.023438 21.929688 C 12.015625 21.933594 12.007812 21.933594 12 21.9375 C 11.988281 21.9375 11.980469 21.941406 11.972656 21.941406 C 11.964844 21.941406 11.953125 21.945312 11.945312 21.945312 C 11.949219 21.945312 11.949219 21.945312 11.945312 21.945312 C 11.9375 21.945312 11.929688 21.945312 11.921875 21.945312 C 11.917969 21.945312 11.914062 21.945312 11.90625 21.945312 C 11.902344 21.945312 11.898438 21.945312 11.894531 21.945312 C 11.886719 21.945312 11.878906 21.945312 11.871094 21.945312 C 11.867188 21.945312 11.867188 21.945312 11.867188 21.945312 C 11.859375 21.945312 11.851562 21.941406 11.84375 21.941406 C 11.832031 21.941406 11.824219 21.9375 11.816406 21.9375 C 11.808594 21.933594 11.800781 21.933594 11.789062 21.929688 C 11.78125 21.925781 11.777344 21.925781 11.769531 21.921875 C 11.765625 21.921875 11.761719 21.921875 11.761719 21.921875 C 11.757812 21.917969 11.75 21.917969 11.746094 21.914062 C 11.742188 21.914062 11.738281 21.910156 11.734375 21.910156 C 11.730469 21.90625 11.726562 21.90625 11.71875 21.902344 C 11.71875 21.902344 11.714844 21.898438 11.710938 21.898438 C 11.703125 21.894531 11.699219 21.894531 11.699219 21.894531 L 2.769531 16.929688 C 2.636719 16.855469 2.550781 16.714844 2.550781 16.558594 L 2.550781 6.636719 C 2.550781 6.539062 2.585938 6.445312 2.644531 6.375 Z M 2.519531 6.304688 "/>
</g>
</svg>

<svg xmlns="http://www.w3.org/2000/svg" width="32" height="32" viewBox="0 0 24 24"><defs><radialGradient id="a" gradientUnits="userSpaceOnUse" cx="450.909" cy="189.579" fx="450.909" fy="189.579" r="21.167" gradientTransform="matrix(0 -.0586 -.10548 0 31.656 48.689)"><stop offset="0" stop-opacity=".314"/><stop offset=".222" stop-opacity=".275"/><stop offset="1" stop-opacity="0"/></radialGradient><radialGradient id="b" gradientUnits="userSpaceOnUse" cx="450.909" cy="189.579" fx="450.909" fy="189.579" r="21.167" gradientTransform="matrix(0 .0586 .10548 0 -7.841 -4.653)"><stop offset="0" stop-opacity=".314"/><stop offset=".222" stop-opacity=".275"/><stop offset="1" stop-opacity="0"/></radialGradient><radialGradient id="c" gradientUnits="userSpaceOnUse" cx="450.909" cy="189.579" fx="450.909" fy="189.579" r="21.167" gradientTransform="matrix(0 -.0586 .10548 0 -7.841 48.689)"><stop offset="0" stop-opacity=".314"/><stop offset=".222" stop-opacity=".275"/><stop offset="1" stop-opacity="0"/></radialGradient><radialGradient id="d" gradientUnits="userSpaceOnUse" cx="450.909" cy="189.579" fx="450.909" fy="189.579" r="21.167" gradientTransform="matrix(0 .0586 -.10548 0 31.656 -4.653)"><stop offset="0" stop-opacity=".314"/><stop offset=".222" stop-opacity=".275"/><stop offset="1" stop-opacity="0"/></radialGradient><linearGradient id="e" gradientUnits="userSpaceOnUse" x1="232.833" y1="254.667" x2="232.833" y2="21.833" gradientTransform="matrix(.04688 0 0 .04688 0 10.08)"><stop offset="0" stop-color="#424242"/><stop offset="1" stop-color="#616161"/></linearGradient><linearGradient id="f" gradientUnits="userSpaceOnUse" x1="254" y1="43" x2="254" y2="-168.667" gradientTransform="matrix(.04688 0 0 .04688 0 10.08)"><stop offset="0" stop-color="#616161"/><stop offset="1" stop-color="#757575"/></linearGradient></defs><path d="M11.906 22.02h1.985v-.993h-1.985zm0 0" fill="url(#a)"/><path d="M11.906 22.02H9.922v.992h1.984zm0 0" fill="url(#b)"/><path d="M11.906 22.02H9.922v-.993h1.984zm0 0" fill="url(#c)"/><path d="M11.906 22.02h1.985v.992h-1.985zm0 0" fill="url(#d)"/><path d="M2.98 6.14a.5.5 0 0 0-.5.497v9.922c0 .18.098.347.258.433l8.93 4.961.008.008c.004 0 .008.004.015.004a.03.03 0 0 0 .016.008c.004.004.008.004.012.004l.02.011h.007a.056.056 0 0 0 .024.008c.011.004.02.008.03.008l.032.008c.008 0 .02.004.031.004h.09c.012 0 .02-.004.031-.004.008-.004.02-.004.032-.008.007 0 .02-.004.027-.008h.004a.056.056 0 0 0 .023-.008h.008c.004-.004.012-.008.02-.011.004 0 .007 0 .011-.004a.03.03 0 0 0 .016-.008c.004 0 .008-.004.012-.004.004-.004.008-.004.011-.008l8.93-4.96a.496.496 0 0 0 .254-.434V6.637a.491.491 0 0 0-.508-.492.514.514 0 0 0-.226.058l-8.692 4.828L3.22 6.203a.569.569 0 0 0-.239-.062zm0 0" fill="url(#e)"/><path d="M11.918 2.172a.55.55 0 0 0-.211.043l-8.93 3.969a.495.495 0 0 0-.039.886l8.93 4.961a.5.5 0 0 0 .48 0l8.93-4.96a.497.497 0 0 0-.039-.887l-8.93-3.97a.545.545 0 0 0-.191-.042zm0 0" fill="url(#f)"/><path d="M11.918 2.172a.55.55 0 0 0-.211.043l-8.93 3.969c-.004.003-.004.003-.007.003-.004 0-.004.004-.008.004a.474.474 0 0 0-.266.336c-.004.008-.004.012-.004.016-.004.004-.004.008-.004.012 0 .008 0 .015-.004.023V6.621c-.004.004-.004.012-.004.016v.246c0-.004 0-.012.004-.016V6.86v-.027-.008c.004-.008.004-.015.004-.023 0-.004 0-.008.004-.012 0-.004 0-.008.004-.016a.474.474 0 0 1 .266-.335c.004 0 .004 0 .008-.004h.007l8.93-3.973a.54.54 0 0 1 .402 0l8.93 3.973c.004 0 .008 0 .012.003.004 0 .008.004.012.004 0 .004.003.004.003.004.133.07.215.184.25.313 0 .008.004.012.004.015 0 .008.004.012.004.016v.012a.05.05 0 0 1 .004.023v.008c.004.008.004.02.004.027v.024-.246-.016-.008c0-.008 0-.02-.004-.031v-.004c0-.008 0-.016-.004-.023v-.012l-.004-.016c0-.004-.004-.011-.004-.015a.484.484 0 0 0-.25-.313l-.003-.004c-.004 0-.008-.004-.012-.004-.004-.003-.008-.003-.012-.007l-8.93-3.97a.545.545 0 0 0-.191-.042zm0 0" fill="#fff" fill-opacity=".392"/><path d="M2.48 16.316v.243c0 .18.098.347.258.433l8.93 4.961.008.008c.004 0 .008.004.015.004a.03.03 0 0 0 .016.008c.004.004.008.004.012.004l.02.011h.007a.056.056 0 0 0 .024.008c.011.004.02.008.03.008l.032.008c.008 0 .02.004.031.004h.09c.012 0 .02-.004.031-.004.008-.004.02-.004.032-.008.007 0 .02-.004.027-.008h.004a.056.056 0 0 0 .023-.008h.008c.004-.004.012-.008.02-.011.004 0 .007 0 .011-.004a.03.03 0 0 0 .016-.008c.004 0 .008-.004.012-.004.004-.004.008-.004.011-.008l8.93-4.96a.496.496 0 0 0 .254-.434v-.243c0 .18-.098.348-.254.434l-8.93 4.96c-.003 0-.007.005-.011.005-.004.004-.008.004-.012.008s-.012.004-.016.007c-.004 0-.007.004-.011.004-.008.004-.016.008-.02.008s-.004.004-.008.004c-.008.004-.015.004-.023.008h-.004c-.008.004-.02.004-.027.008-.012.004-.024.004-.032.008-.011 0-.02 0-.03.003h-.091c-.011-.003-.023-.003-.031-.003-.012-.004-.02-.004-.031-.008-.012-.004-.02-.004-.031-.008-.008-.004-.016-.004-.024-.008-.004 0-.004-.004-.008-.004a.03.03 0 0 1-.02-.008c-.003 0-.007-.004-.011-.004-.004-.003-.012-.003-.016-.007-.007-.004-.011-.004-.015-.008-.004 0-.004-.004-.008-.004l-8.93-4.961a.492.492 0 0 1-.258-.434zm0 0" fill-opacity=".235"/><path d="M2.48 6.531v.621l9.18 5.094v9.774h.504v-9.778l9.172-5.09v-.496l-.117.043-9.313 5.149-9.312-5.149zm0 0" fill="#fff" fill-opacity=".314"/><path d="M11.918 2.102a.556.556 0 0 0-.238.05l-8.934 3.97a.56.56 0 0 0-.328.554c.043-.012.086-.02.133-.028a.416.416 0 0 1 .254-.398l8.93-3.969a.414.414 0 0 1 .18-.039.46.46 0 0 1 .163.04l8.934 3.968c.168.074.254.23.254.387h.132a.55.55 0 0 0-.332-.516l-8.93-3.969a.616.616 0 0 0-.218-.05zm-.281 9.992a.56.56 0 0 0 .543 0zm0 0" fill="#212121"/><path d="M2.52 6.305a.573.573 0 0 0-.11.332v9.922a.57.57 0 0 0 .293.496l8.93 4.96a.03.03 0 0 0 .012.005c.003.003.007.007.015.007.004.004.012.008.02.012.004 0 .008.004.011.004l.024.012h.008c.007.004.015.008.027.011 0 0 .004 0 0 0 .012 0 .023.004.035.008.012.004.024.004.035.008.012 0 .024 0 .035.004.004 0 .004 0 0 0h.106c.012-.004.023-.004.035-.004.012-.004.024-.004.035-.008.012-.004.02-.008.031-.008h.004l.028-.011h.008l.023-.012c.004 0 .008-.004.012-.004.008-.004.011-.008.02-.012.003 0 .011-.004.015-.004 0-.003.004-.003.012-.007l8.93-4.961c.179-.102.288-.29.288-.496V6.637a.546.546 0 0 0-.109-.332l-.121.07c.055.07.09.164.09.262v9.922a.418.418 0 0 1-.219.37l-8.93 4.966s-.004 0-.008.003c-.003 0-.007.004-.011.004-.004.004-.012.004-.016.008 0 0-.004.004-.008.004l-.02.008h-.003c-.008.004-.016.004-.024.008.004 0 .004 0 0 0-.007.004-.015.004-.023.008-.012 0-.02.003-.027.003-.008 0-.02.004-.028.004.004 0 .004 0 0 0H11.867c-.008 0-.015-.004-.023-.004-.012 0-.02-.003-.028-.003-.007-.004-.015-.004-.027-.008l-.02-.008h-.007c-.004-.004-.012-.004-.016-.008-.004 0-.008-.004-.012-.004-.004-.004-.007-.004-.015-.008 0 0-.004-.004-.008-.004l-.012-.003-8.93-4.965a.426.426 0 0 1-.218-.371V6.637c0-.098.035-.192.094-.262zm0 0" fill="#212121"/></svg>
